X:175
T:It grieves me much to Pitty thee
M:C
L:1/8
B:Thompson's Compleat Collection of 200 Favourite Country Dances, vol. 3 (London, 1773)
Z:Transcribed and edited by Flynn Titford-Mock, 2007
Z:abc's:AK/Fiddler's Companion
K:D
d>ed<A F<DDd | eEE>F G>A B2 | d>ed<A FDDd | fdd<A B>c d2 :|
|: e>fed c<Aec | dBfd c^A F2 | B>cBF d>edB | f>gfd B>cd2 |
d>ed<A F<DDd | eEE>F G>A B2 | d>ed<A FDDd | fdd<A B>c d2 :|

